packages/core/assets/Icons/monitoring.svg

<svg viewBox="0 0 20 20" fill="none" xmlns="http://www.w3.org/2000/svg">
<path d="M3.33333 17.5C3.09722 17.5 2.89931 17.4201 2.73958 17.2604C2.57986 17.1007 2.5 16.9027 2.5 16.6666V15.8333C2.5 15.5972 2.57986 15.3993 2.73958 15.2396C2.89931 15.0798 3.09722 15 3.33333 15C3.56944 15 3.76736 15.0798 3.92708 15.2396C4.08681 15.3993 4.16667 15.5972 4.16667 15.8333V16.6666C4.16667 16.9027 4.08681 17.1007 3.92708 17.2604C3.76736 17.4201 3.56944 17.5 3.33333 17.5ZM6.66667 17.5C6.43056 17.5 6.23264 17.4201 6.07292 17.2604C5.91319 17.1007 5.83333 16.9027 5.83333 16.6666V12.0833C5.83333 11.8472 5.91319 11.6493 6.07292 11.4896C6.23264 11.3298 6.43056 11.25 6.66667 11.25C6.90278 11.25 7.10069 11.3298 7.26042 11.4896C7.42014 11.6493 7.5 11.8472 7.5 12.0833V16.6666C7.5 16.9027 7.42014 17.1007 7.26042 17.2604C7.10069 17.4201 6.90278 17.5 6.66667 17.5ZM10 17.5C9.76389 17.5 9.56597 17.4201 9.40625 17.2604C9.24653 17.1007 9.16667 16.9027 9.16667 16.6666V13.75C9.16667 13.5139 9.24653 13.3159 9.40625 13.1562C9.56597 12.9965 9.76389 12.9166 10 12.9166C10.2361 12.9166 10.434 12.9965 10.5938 13.1562C10.7535 13.3159 10.8333 13.5139 10.8333 13.75V16.6666C10.8333 16.9027 10.7535 17.1007 10.5938 17.2604C10.434 17.4201 10.2361 17.5 10 17.5ZM13.3333 17.5C13.0972 17.5 12.8993 17.4201 12.7396 17.2604C12.5799 17.1007 12.5 16.9027 12.5 16.6666V12.5C12.5 12.2639 12.5799 12.0659 12.7396 11.9062C12.8993 11.7465 13.0972 11.6666 13.3333 11.6666C13.5694 11.6666 13.7674 11.7465 13.9271 11.9062C14.0868 12.0659 14.1667 12.2639 14.1667 12.5V16.6666C14.1667 16.9027 14.0868 17.1007 13.9271 17.2604C13.7674 17.4201 13.5694 17.5 13.3333 17.5ZM16.6667 17.5C16.4306 17.5 16.2326 17.4201 16.0729 17.2604C15.9132 17.1007 15.8333 16.9027 15.8333 16.6666V9.16664C15.8333 8.93052 15.9132 8.73261 16.0729 8.57289C16.2326 8.41316 16.4306 8.3333 16.6667 8.3333C16.9028 8.3333 17.1007 8.41316 17.2604 8.57289C17.4201 8.73261 17.5 8.93052 17.5 9.16664V16.6666C17.5 16.9027 17.4201 17.1007 17.2604 17.2604C17.1007 17.4201 16.9028 17.5 16.6667 17.5ZM11.6667 9.97914C11.4444 9.97914 11.2326 9.93747 11.0312 9.85414C10.8299 9.7708 10.6458 9.65275 10.4792 9.49997L8.33333 7.35414L3.91667 11.7708C3.75 11.9375 3.55208 12.0173 3.32292 12.0104C3.09375 12.0034 2.89583 11.9166 2.72917 11.75C2.57639 11.5833 2.50347 11.3854 2.51042 11.1562C2.51736 10.9271 2.59722 10.7361 2.75 10.5833L7.14583 6.18747C7.3125 6.0208 7.49653 5.89927 7.69792 5.82289C7.89931 5.7465 8.11111 5.7083 8.33333 5.7083C8.55556 5.7083 8.77083 5.7465 8.97917 5.82289C9.1875 5.89927 9.36806 6.0208 9.52083 6.18747L11.6667 8.3333L16.0833 3.91664C16.25 3.74997 16.4479 3.67011 16.6771 3.67705C16.9062 3.684 17.1042 3.7708 17.2708 3.93747C17.4236 4.10414 17.4965 4.30205 17.4896 4.53122C17.4826 4.76039 17.4028 4.95136 17.25 5.10414L12.8542 9.49997C12.7014 9.65275 12.5208 9.7708 12.3125 9.85414C12.1042 9.93747 11.8889 9.97914 11.6667 9.97914Z" fill="currentColor"/>
</svg>

<svg xmlns="http://www.w3.org/2000/svg" width="20" height="20" fill="none" viewBox="0 0 20 20">
  <path fill="#201F1F" d="M3.333 17.5a.806.806 0 0 1-.593-.24.806.806 0 0 1-.24-.593v-.834c0-.236.08-.434.24-.593.16-.16.357-.24.593-.24s.434.08.594.24c.16.16.24.357.24.593v.834c0 .236-.08.434-.24.593a.806.806 0 0 1-.594.24Zm3.334 0a.806.806 0 0 1-.594-.24.806.806 0 0 1-.24-.593v-4.584c0-.236.08-.434.24-.593.16-.16.358-.24.594-.24s.434.08.593.24c.16.16.24.357.24.593v4.584c0 .236-.08.434-.24.593a.806.806 0 0 1-.593.24Zm3.333 0a.806.806 0 0 1-.594-.24.806.806 0 0 1-.24-.593V13.75c0-.236.08-.434.24-.594.16-.16.358-.24.594-.24s.434.08.594.24c.16.16.24.358.24.594v2.917c0 .236-.08.434-.24.593a.807.807 0 0 1-.594.24Zm3.333 0a.806.806 0 0 1-.593-.24.807.807 0 0 1-.24-.593V12.5c0-.236.08-.434.24-.594.16-.16.357-.24.593-.24s.434.08.594.24c.16.16.24.358.24.594v4.167c0 .236-.08.434-.24.593a.807.807 0 0 1-.594.24Zm3.334 0a.807.807 0 0 1-.594-.24.807.807 0 0 1-.24-.593v-7.5c0-.236.08-.434.24-.594.16-.16.358-.24.594-.24s.434.08.593.24c.16.16.24.358.24.594v7.5c0 .236-.08.434-.24.593a.806.806 0 0 1-.593.24Zm-5-7.52c-.223 0-.434-.043-.636-.126a1.872 1.872 0 0 1-.552-.354L8.333 7.354l-4.416 4.417a.776.776 0 0 1-.594.24.85.85 0 0 1-.594-.261.81.81 0 0 1-.219-.594.814.814 0 0 1 .24-.573l4.396-4.396a1.56 1.56 0 0 1 .552-.364 1.862 1.862 0 0 1 1.281 0c.209.076.39.198.542.364l2.146 2.146 4.416-4.416a.776.776 0 0 1 .594-.24.85.85 0 0 1 .594.26.81.81 0 0 1 .219.594.814.814 0 0 1-.24.573L12.854 9.5c-.153.153-.333.27-.541.354a1.724 1.724 0 0 1-.646.125Z"/>
</svg>
